svg/FoundationIcons/fi-print.svg

<svg xmlns="http://www.w3.org/2000/svg" viewBox="0 0 100 100" enable-background="new 0 0 100 100"><path d="m90.44 35.14c-.064-.953-.849-1.708-1.818-1.708h-13.11v-21.576c0-1.012-.819-1.83-1.83-1.83h-47.36c-1.01 0-1.83.818-1.83 1.83v21.576h-13.11c0 0-.002 0-.002 0-.969 0-1.754.755-1.818 1.708h-.012v36.769c0 1.01.819 1.829 1.83 1.829h13.11v-15.314h4.987 41.05 4.987v15.314h13.11c1.01 0 1.83-.819 1.83-1.829v-36.769h-.011m-19.919 6.49h-41.05v-24.787c0-1.012.819-1.83 1.83-1.83h37.39c1.01 0 1.83.818 1.83 1.83v24.787z"/><path d="m29.602 88.14c0 1.012.819 1.83 1.83 1.83h37.14c1.01 0 1.83-.818 1.83-1.83v-24.64h-40.796v24.64"/></svg>

<?xml version="1.0" encoding="utf-8"?>
<!-- Generator: Adobe Illustrator 17.0.0, SVG Export Plug-In . SVG Version: 6.00 Build 0)  -->
<!DOCTYPE svg PUBLIC "-//W3C//DTD SVG 1.1//EN" "http://www.w3.org/Graphics/SVG/1.1/DTD/svg11.dtd">
<svg version="1.1" id="Layer_1" xmlns="http://www.w3.org/2000/svg" xmlns:xlink="http://www.w3.org/1999/xlink" x="0px" y="0px"
	 width="100px" height="100px" viewBox="0 0 100 100" enable-background="new 0 0 100 100" xml:space="preserve">
<g>
	<path d="M90.443,35.141c-0.064-0.953-0.849-1.708-1.818-1.708H75.511v0h0V11.857c0-1.012-0.819-1.83-1.83-1.83H26.319
		c-1.011,0-1.83,0.818-1.83,1.83v21.576h0H11.377c0,0-0.002,0-0.002,0c-0.969,0-1.754,0.755-1.818,1.708H9.545V71.91
		c0,1.01,0.819,1.829,1.83,1.829v0h13.114V58.425h0h4.987h41.047h4.987h0v15.314h13.114c1.011,0,1.83-0.819,1.83-1.829V35.141
		H90.443z M70.524,41.631H29.476V16.844c0-1.012,0.819-1.83,1.83-1.83h0h37.387c1.011,0,1.83,0.818,1.83,1.83V41.631z"/>
	<path d="M29.602,88.143c0,1.012,0.819,1.83,1.83,1.83h37.136c1.011,0,1.83-0.818,1.83-1.83v-24.64H29.602V88.143z"/>
</g>
</svg>
